public/assets/icon_profile.svg

<svg width="25" height="25" viewBox="0 0 25 25"
    xmlns="http://www.w3.org/2000/svg">
    <g clip-path="url(#clip0)">
        <path d="M21.0667 4.36076V0.732195C21.0667 0.458171 20.9137 0.207097 20.6702 0.0813642C20.4268 -0.0443194 20.1334 -0.0236163 19.9101 0.135075L16.5885 2.4946C15.2767 2.06071 13.9033 1.84098 12.5 1.84098C11.0759 1.84098 9.6834 2.06706 8.35454 2.51354L5.09707 0.140202C4.87437 -0.0220538 4.57935 -0.0455401 4.33369 0.0793623C4.08809 0.204314 3.93335 0.456609 3.93335 0.732195V6.28268C3.93335 8.33864 4.84458 10.311 6.4334 11.6939L7.15688 12.3236H0.732422C0.32793 12.3236 0 12.6515 0 13.056C0 16.253 1.30474 19.2568 3.67388 21.5139C6.0333 23.7618 9.16777 24.9998 12.5 24.9998C15.8322 24.9998 18.9667 23.7618 21.3261 21.5139C23.6953 19.2568 25 16.253 25 13.056C25 9.76276 23.5697 6.61384 21.0667 4.36076ZM5.39819 6.28268V2.17204L7.80352 3.92453C8.00181 4.06906 8.25928 4.10461 8.48936 4.01931C9.7666 3.54587 11.116 3.30583 12.5 3.30583C13.8632 3.30583 15.1935 3.53884 16.454 3.99846C16.6803 4.08098 16.9327 4.04694 17.129 3.90744L19.6019 2.15085V6.28288C19.6019 7.91481 18.8741 9.4843 17.6052 10.5889L13.2324 14.3955V14.1416C13.2324 13.7371 12.9045 13.4092 12.5 13.4092C12.0955 13.4092 11.7676 13.7371 11.7676 14.1416V14.3948L7.39512 10.5889C6.12603 9.4843 5.39819 7.91477 5.39819 6.28268ZM4.13184 13.7884H4.1626C3.94761 14.9514 3.13833 15.9364 2.03389 16.3783C1.74346 15.5553 1.55713 14.6875 1.49146 13.7884H4.13184ZM12.5 23.5349C8.17852 23.5349 4.42993 21.1635 2.61982 17.7195C4.24946 17.0488 5.41831 15.5423 5.64351 13.7884H8.8398L12.0196 16.5562C12.1574 16.6761 12.3289 16.7361 12.5004 16.7361C12.672 16.7361 12.8435 16.6761 12.9813 16.5561L18.567 11.6938C20.1123 10.3485 21.0163 8.44563 21.0644 6.4506C22.6497 8.30603 23.5352 10.638 23.5352 13.056C23.5352 18.8341 18.5848 23.5349 12.5 23.5349Z" />
        <path d="M14.4673 9.1622C14.5296 9.46244 14.7737 9.6977 15.0779 9.74369C15.3801 9.78944 15.6875 9.63368 15.8311 9.36435C15.9752 9.09379 15.9335 8.75531 15.7283 8.52738C15.5241 8.30058 15.1866 8.22577 14.9053 8.34286C14.5842 8.4765 14.4033 8.8223 14.4673 9.1622Z" />
        <path d="M9.09622 9.16222C9.15852 9.46246 9.40266 9.69771 9.70681 9.74371C10.009 9.78946 10.3165 9.63365 10.46 9.36437C10.6042 9.09371 10.5625 8.75538 10.3573 8.5274C10.1531 8.3006 9.81546 8.22574 9.53421 8.34288C9.21316 8.47662 9.03225 8.82223 9.09622 9.16222Z" />
    </g>
    <defs>
        <clipPath id="clip0">
            <rect width="25" height="25" />
        </clipPath>
    </defs>
</svg>

<svg width="25" height="25" xmlns="http://www.w3.org/2000/svg"><g clip-path="url(#clip0)"><path d="M21.067 4.36V.733A.733.733 0 0019.91.135l-3.322 2.36A12.985 12.985 0 0012.5 1.84c-1.424 0-2.817.226-4.145.673L5.097.14a.733.733 0 00-1.164.592v5.55c0 2.057.912 4.029 2.5 5.412l.724.63H.732a.732.732 0 00-.732.732c0 3.197 1.305 6.2 3.674 8.458C6.034 23.762 9.168 25 12.5 25c3.332 0 6.467-1.238 8.826-3.486C23.696 19.257 25 16.253 25 13.056c0-3.293-1.43-6.442-3.933-8.695zM5.398 6.284V2.172l2.406 1.753c.198.144.455.18.685.094a11.5 11.5 0 014.011-.713c1.363 0 2.694.233 3.954.692a.732.732 0 00.675-.09l2.473-1.757v4.132c0 1.632-.728 3.201-1.997 4.306l-4.373 3.806v-.253a.732.732 0 10-1.464 0v.253l-4.373-3.806C6.126 9.484 5.398 7.915 5.398 6.283zm-1.266 7.505h.03a3.487 3.487 0 01-2.128 2.59 9.95 9.95 0 01-.543-2.59h2.64zm8.368 9.747c-4.321 0-8.07-2.372-9.88-5.816a4.955 4.955 0 003.024-3.93H8.84l3.18 2.767a.73.73 0 00.961 0l5.586-4.862c1.545-1.346 2.45-3.248 2.497-5.243 1.586 1.855 2.471 4.187 2.471 6.605 0 5.778-4.95 10.479-11.035 10.479z"/><path d="M14.467 9.162c.063.3.307.536.61.582.303.045.61-.11.754-.38a.74.74 0 00-.103-.837.739.739 0 00-.823-.184.74.74 0 00-.438.82zM9.096 9.162c.063.3.307.536.61.582.303.045.61-.11.754-.38a.74.74 0 00-.103-.837.739.739 0 00-.823-.184.74.74 0 00-.438.82z"/></g><defs><clipPath id="clip0"><path d="M0 0h25v25H0z"/></clipPath></defs></svg>
